source/img/favicons/icon.svg

<svg width="152" height="152" fill="none" xmlns="http://www.w3.org/2000/svg"><path fill="#EEE" d="M0 0h152v152H0z"/><path d="M100.6 102.4V43.9c0-3.5-3.3-6.5-7-6.5H58.3c-3.9 0-7 3-7 6.5v58.5c0 3.5 3.1 6.5 7 6.5 3.8 0 7-3 7-6.5V50.1h21.3v52.3c0 3.5 3.3 6.5 7 6.5 3.8 0 7-3 7-6.5z" fill="#161C35"/></svg>

<svg width="152" height="152" viewBox="0 0 152 152" fill="none" xmlns="http://www.w3.org/2000/svg">
<rect width="152" height="152" fill="#EEEEEE"/>
<path d="M100.6 102.4V43.9C100.6 40.4 97.3 37.4 93.6 37.4H58.3C54.4 37.4 51.3 40.4 51.3 43.9V102.4C51.3 105.9 54.4 108.9 58.3 108.9C62.1 108.9 65.3 105.9 65.3 102.4V50.1H86.6V102.4C86.6 105.9 89.9 108.9 93.6 108.9C97.4 108.9 100.6 105.9 100.6 102.4Z" fill="#161C35"/>
</svg>
